la/user-slash-solid.svg

<svg xmlns="http://www.w3.org/2000/svg" viewBox="0 0 32 32" height="1em" width="1em">
  <path d="M 3.6992188 2.3007812 L 2.3007812 3.6992188 L 9.1210938 10.519531 C 9.1148472 10.54659 9.1055539 10.572434 9.0996094 10.599609 L 11 12.5 L 11 12.398438 L 15.601562 17 L 15.5 17 L 17.699219 19.199219 C 17.749353 19.210917 17.795909 19.231553 17.845703 19.244141 L 23.660156 25.058594 C 23.670754 25.106568 23.68955 25.150877 23.699219 25.199219 L 25.5 27 L 25.601562 27 L 28.300781 29.699219 L 29.699219 28.300781 L 25.59375 24.195312 C 24.75029 21.314801 22.648326 18.945754 19.900391 17.800781 C 21.800391 16.500781 23 14.4 23 12 C 23 8.1 19.9 5 16 5 C 13.390973 5 11.146509 6.4199607 9.921875 8.5234375 L 3.6992188 2.3007812 z M 16 7 C 18.8 7 21 9.2 21 12 C 21 14.086994 19.776043 15.83791 17.994141 16.595703 L 11.404297 10.005859 C 12.16209 8.2239568 13.913006 7 16 7 z M 9.0996094 13.300781 C 9.4996094 15.200781 10.499609 16.800781 12.099609 17.800781 C 8.4996094 19.300781 6 22.9 6 27 L 8 27 C 8 22.9 11.000391 19.599609 14.900391 19.099609 L 9.0996094 13.300781 z"/>
</svg>

<svg xmlns="http://www.w3.org/2000/svg" viewBox="0 0 32 32" height="1em" width="1em">
  <path d="M3.7 2.3 2.3 3.7l6.821 6.82c-.006.027-.015.052-.021.08l1.9 1.9v-.102L15.602 17H15.5l2.2 2.2c.05.01.096.032.146.044l5.814 5.815c.01.048.03.092.04.14L25.5 27h.102l2.699 2.7 1.398-1.4-4.105-4.105c-.844-2.88-2.946-5.25-5.694-6.394C21.8 16.5 23 14.4 23 12c0-3.9-3.1-7-7-7-2.609 0-4.853 1.42-6.078 3.523L3.699 2.301zM16 7c2.8 0 5 2.2 5 5 0 2.087-1.224 3.838-3.006 4.596l-6.59-6.59C12.162 8.224 13.913 7 16 7zm-6.9 6.3c.4 1.9 1.4 3.5 3 4.5C8.5 19.3 6 22.9 6 27h2c0-4.1 3-7.4 6.9-7.9l-5.8-5.8z"/>
</svg>
